lib/radiotmp/nrk-media-beam-note-expressive.svg

<svg width="24" height="24" viewBox="0 0 24 24" fill="none" xmlns="http://www.w3.org/2000/svg">
<path fill-rule="evenodd" clip-rule="evenodd" d="M6.5 14C4.567 14 3 15.567 3 17.5C3 19.433 4.567 21 6.5 21C8.433 21 10 19.433 10 17.5C10 15.567 8.433 14 6.5 14ZM5 17.5C5 16.6716 5.67157 16 6.5 16C7.32843 16 8 16.6716 8 17.5C8 18.3284 7.32843 19 6.5 19C5.67157 19 5 18.3284 5 17.5Z" fill="black"/>
<path fill-rule="evenodd" clip-rule="evenodd" d="M17.5 14C15.567 14 14 15.567 14 17.5C14 19.433 15.567 21 17.5 21C19.433 21 21 19.433 21 17.5C21 15.567 19.433 14 17.5 14ZM16 17.5C16 16.6716 16.6716 16 17.5 16C18.3284 16 19 16.6716 19 17.5C19 18.3284 18.3284 19 17.5 19C16.6716 19 16 18.3284 16 17.5Z" fill="black"/>
<path fill-rule="evenodd" clip-rule="evenodd" d="M12 5C10.8954 5 10 5.89543 10 7V17.5H8V7C8 4.79086 9.79086 3 12 3H17C19.2091 3 21 4.79086 21 7V17.4219H19V7C19 5.89543 18.1046 5 17 5H12Z" fill="black"/>
</svg>

<svg xmlns="http://www.w3.org/2000/svg" viewBox="0 0 24 24"><path fill="#000" fill-rule="evenodd" d="M6.5 14a3.5 3.5 0 1 0 0 7 3.5 3.5 0 0 0 0-7ZM5 17.5a1.5 1.5 0 1 1 3 0 1.5 1.5 0 0 1-3 0ZM17.5 14a3.5 3.5 0 1 0 0 7 3.5 3.5 0 0 0 0-7ZM16 17.5a1.5 1.5 0 1 1 3 0 1.5 1.5 0 0 1-3 0Z" clip-rule="evenodd"/><path fill="#000" fill-rule="evenodd" d="M12 5a2 2 0 0 0-2 2v10.5H8V7a4 4 0 0 1 4-4h5a4 4 0 0 1 4 4v10.422h-2V7a2 2 0 0 0-2-2h-5Z" clip-rule="evenodd"/></svg>
